icons/social-clubhouse-negative.svg

<svg viewBox="0 0 24 24"><path fill="#0a090b" d="M1.7 17.9q-1.6.2-1.7 1.7.2 1.6 1.7 1.8a1.7 1.7 0 1 0 0-3.5Zm21.5-15.2-11 3.5v-3.5l-11.8 3.8v10l10.2-3.3v3.5l13.4-4.3-3.6-3.5zm-12.6 8.8-8.6 2.8v-6.6l8.6-2.8zm10.4.2-8.8 2.8v-6.6l8-2.6-1.8 4z"/></svg>

<svg viewBox="0 0 24 24"><path fill="#0a090b" d="M1.7 17.9Q.1 18 0 19.6q.2 1.6 1.7 1.8a1.7 1.7 0 1 0 0-3.5M23.2 2.7l-11 3.5V2.7L.4 6.5v10l10.2-3.3v3.5L24 12.4 20.4 9zm-12.6 8.8L2 14.3V7.7l8.6-2.8zm10.4.2-8.8 2.8V7.9l8-2.6-1.8 4z"/></svg>
